!!!COM: Schubert, Franz
!!!CNT: Deutscher
!!!TXO: Deutsch
!!!OTL: "Thraenenregen"
!!!OPR: Die schoene Muellerin
!!!LYR: Mu2ller, Wilhelm
!!!OPS: Opus 25
!!!ONM: No. 10
!!!ODT: 1823/
!!NB: Vocal melody only encoded.
**kern	**silbe
*clefG2	*
*k[f#c#g#]	*
*M6/8	*
*MM[langsam]	*
=4	=4
4r	.
8r	.
4r	.
{8cc#	{Wir
=5	=5
8cc#	sas-
8dd	-sen
8b	so
16a	trau-
16g#	|
8f#	-lich
8e	bei-
=6	=6
4.e	-sam-
8a}	-men}
8r	.
{8a	{im
=7	=7
4b	ku2h-
8cc#	-len
8ee	Er-
8dd	|
8cc#	-len-
=8	=8
4.b}	-dach,}
8r	.
8r	.
{8cc#	{wir
=9	=9
8cc#	schau-
8dd	-ten
8b	so
16a	trau-
16g#	|
8f#	-lich
8e	zu-
=10	=10
4.e	-sam-
4a}	-men}
{8b	{hin-
=11	=11
8cc#	ab
8f#	in
8f#	dem
8a	rie-
8d#	-seln-
8d#	-den
=12	=12
4.e}	Bach.}
4r	.
8r	.
=14	=14
4r	.
8r	.
4r	.
{8e	{Der
=15	=15
4f#	Mond
8f#	war
4g#	auch
8g#	ge-
=16	=16
(4a	-kom-
8cc#)	|
4b}	-men,}
{8cc#	{die
=17	=17
4dd	Stern-
8b	-lein
8cc#	hin-
8a	|
8b	-ter-
=18	=18
4.cc#}	-drein,}
8r	.
8r	.
{8e	{und
=19	=19
8.f#	schau-
16f#	-ten
8f#	so
8g#	trau-
8g#	-lich
8g#	zu-
=20	=20
(4a	-sam-
8cc#)	|
8b}	-men}
{8b	{in
8cc#	den
=21	=21
8.dd	sil-
16cc#	-ber-
8b	-nen
8cc#	Spie-
8ee	-gel
8g#	hin-
=22	=22
4a}	-ein.}
8r	.
4r	.
8r	.
=24	=24
4r	.
8r	.
4r	.
{8ccn	{Da
=25	=25
8ccn	gin-
8dd	-gen
8b	die
16a	Au-
16g#	|
8f#	-gen
8e	mir
=26	=26
4.e	u2-
4a}	-ber,}
{8b	{da
=27	=27
8.ccn	ward
16b	es
8ccn	im
8.dd	Spie-
16dd	-gel
8dd	so
=28	=28
4ee}	kraus,}
8r	.
4r	.
{8b-	{sie
=29	=29
4a	sprach:
8a	es
4a	kommt
8a	ein
=30	=30
4ccn	Re-
8a}	-gen,}
8r	.
8r	.
{8a	{a-
=31	=31
8cc#	-de,
8a	|
8b	ich
8cc#	geh'
8ee	|
8g#	nach
=32	=32
4a}	Haus.}
8r	.
4r	.
8r	.
*-	*-
